!!!OTL: 1823. Beim Schaukeln des Kindes.
!!!ODT: 1858
!!!ARE: Europa, Mitteleuropa, Deutschland, Erfurt, Stotternheim
!!!SCT: E1823
!!!TXL: @@DE
!!!YEM: Copyright 1995, estate of Helmut Schaffrath.
**kern	**text
*ICvox	*
*M2/4	*
*k[f#]	*
*G:	*
=1	=1
!LO:TX:a:t=Aus Stotternheim (bei Erfurt) 1858.	!
{4dd	Bim-
8b	-baum,
8g	die
=2	=2
8dd	Glock
8dd	iſt
4b}	krank.
=3	=3
{4dd	Wo
8b	denn?
8g	im
=4	=4
8dd	Kreuʒ-
8dd	.
4b}	-gang.
=5	=5
{8dd	Lach-
8dd	-ten
8b	al-
8g	-le
=6	=6
4dd	Leu-
8b	-te,
8r}	.
=7	=7
{8dd	Hänschen
8dd	.
8b	mit
8g	der
=8	=8
4dd	Deu-
8b	-te.
8r}	.
=9	=9
{8dd	Gret-
8dd	-chen
8b	mit
8g	der
=10	=10
4dd	Ta-
4b}	-ſche;
=11	=11
{8ee	Karl-
8dd	-chen
8cc	woll'n
8b	wir
=12	=12
4a	la-
4g}	-ſche(ſchlagen).
==	==
!!!AGN: Kinder -, Schaukel -, Reiter - Lied
!!!ONB: ESAC (Essen Associative Code) Database: ERK3
!!!AMT: simple duple
!!!AIN: vox
!!!EED: Helmut Schaffrath
!!!EEV: 1.0
!!!GTL: Einige Kinderlieder. b) Koselieder in der Kinderstube.
!!!URL-scan: https://rosdok.uni-rostock.de/mcrviewer/recordIdentifier/rosdok_ppn745177999/iview2/phys_0590.iview2?x=-4.404412318551749&y=290.15296810120344&scale=0.6456904138606623&rotation=0&layout=singlePageLayout
!!!ENC: Anna Maria Matuszewska
!!!EEV: 2025/09/01
*-	*-
